static/assets/template/assets/img/icons/essential/detailed/Currency_1_.svg

<svg height="144" viewBox="0 0 115 144" width="115" xmlns="http://www.w3.org/2000/svg"><g fill="none" fill-rule="evenodd" transform="translate(1 1)"><path d="m33.7 86v24.8l8.4.1c1.3 0 2.1 1.5 1.3 2.6l-19.1 26.8c-1 1.4-3.2 1.4-4.2 0l-18.8-26.9c-.8-1.1 0-2.6 1.4-2.6h6.6v-58.2" fill-rule="nonzero"/><path d="m33.7 86v24.8l8.4.1c1.3 0 2.1 1.5 1.3 2.6l-19.1 26.8c-1 1.4-3.2 1.4-4.2 0l-18.8-26.9c-.8-1.1 0-2.6 1.4-2.6h6.6v-58.2" fill-rule="nonzero"/><path d="m9.2 81.7v-7.9" stroke-linecap="round" stroke-linejoin="round" stroke-width="3"/><path d="m33.7 104.9v6l8.4.1c1.3 0 2.1 1.5 1.3 2.6l-19.1 26.8c-1 1.4-3.2 1.4-4.2 0l-18.8-26.9c-.8-1.1 0-2.6 1.4-2.6h6.6v-21.6" stroke-linecap="round" stroke-linejoin="round" stroke-width="3"/><g transform="translate(9)"><circle cx="51.6" cy="51.2" fill-rule="nonzero" r="51.2"/><circle cx="53.2" cy="52.8" fill="#c4e0ff" fill-rule="nonzero" r="49.6"/><g fill-rule="nonzero" transform="translate(36 22)"><path d="m14.6 56c-1.9 0-3.4-1.5-3.4-3.4v-2.9c-2.4-.2-4.9-.8-6.9-1.8-1.7-.8-2.6-2.8-1.9-4.6.5-1.5 1.9-2.5 3.5-2.5.5 0 1 .1 1.5.3 1.4.6 3.6 1.4 6.2 1.4 3.5 0 5.9-1.8 5.9-4.6 0-1.8-.7-3.8-6.1-6-5.8-2.3-11.2-5.3-11.2-12.1 0-5.5 3.6-9.8 9.4-11.2v-3.1c0-1.9 1.5-3.4 3.4-3.4s3.4 1.5 3.4 3.4v2.7c1.9.2 3.7.6 5.2 1.3 1.8.7 2.7 2.8 2 4.7-.5 1.4-1.9 2.4-3.4 2.4-.5 0-1-.1-1.4-.3-1.6-.7-3.4-1-5.2-1-3.7 0-5.1 2-5.1 3.8 0 2 1 3.3 6.8 5.7 4.9 2 10.5 5.3 10.5 12.7 0 5.7-3.9 10.3-9.8 11.8v3.3c.1 1.9-1.4 3.4-3.4 3.4z"/><path d="m15.1 3.6c1.1 0 1.9.9 1.9 1.9v4.1c2.6.1 4.6.6 6.2 1.2 1.1.4 1.6 1.7 1.2 2.8-.3.9-1.2 1.4-2 1.4-.3 0-.6-.1-.8-.2-1.4-.6-3.3-1.1-5.8-1.1-4.8 0-6.6 2.9-6.6 5.3 0 3.2 2.3 4.8 7.7 7.1 6.4 2.6 9.6 5.8 9.6 11.3 0 4.9-3.4 9.5-9.8 10.5v4.5c0 1.1-.9 1.9-1.9 1.9h-.1c-1.1 0-1.9-.9-1.9-1.9v-4.3c-2.8 0-5.6-.7-7.7-1.7-1-.5-1.5-1.7-1.1-2.7.3-.9 1.2-1.4 2-1.4.3 0 .6.1.9.2 2 .9 4.3 1.5 6.8 1.5 4.4 0 7.4-2.5 7.4-6.1 0-3.4-2.4-5.5-7-7.4-6.3-2.5-10.2-5.3-10.2-10.7 0-5.1 3.7-9 9.4-10v-4.3c-.2-1 .7-1.9 1.8-1.9zm0-3c-2.7 0-4.9 2.2-4.9 4.9v2c-5.7 1.9-9.4 6.6-9.4 12.3 0 7.7 6.1 11.2 12.1 13.5 4.7 1.9 5.1 3.4 5.1 4.6 0 2.3-2.4 3.1-4.4 3.1-2.4 0-4.4-.7-5.6-1.2-.7-.3-1.4-.5-2.2-.5-2.2 0-4.1 1.4-4.9 3.4-.9 2.6.2 5.3 2.7 6.5 1.8.8 3.9 1.4 6 1.8v1.6c0 2.7 2.2 4.9 4.9 4.9h.1c2.7 0 4.9-2.2 4.9-4.9v-2.2c5.9-1.9 9.8-6.8 9.8-12.9 0-8.4-6.1-11.9-11.5-14.1s-5.8-3.2-5.8-4.3c0-1.5 1.3-2.3 3.6-2.3 1.7 0 3.2.3 4.6.9.6.3 1.3.4 2 .4 2.2 0 4.1-1.3 4.8-3.3 1-2.6-.3-5.6-2.8-6.6-1.3-.5-2.8-.9-4.3-1.2v-1.4c.1-2.8-2.1-5-4.8-5z"/></g><g stroke-linecap="round" stroke-linejoin="round" stroke-width="3"><path d="m13.6 55.5c-.1-1.4-.2-2.7-.2-4.1 0-20.9 17-37.9 37.9-37.9 7.2 0 13.9 2 19.6 5.5"/><path d="m89.2 52.8c-.8 20.2-17.4 36.4-37.9 36.4-10.2 0-19.4-4-26.2-10.5"/><path d="m59.4.5c24.6 3.8 43.4 25 43.4 50.6 0 28.3-22.9 51.2-51.2 51.2s-51.2-22.9-51.2-51.2c0-17.8 9.1-33.5 22.9-42.7"/><path d="m33.5 3.2c1.7-.6 3.4-1.2 5.1-1.6"/></g></g></g></svg>

<?xml version="1.0" encoding="UTF-8"?>
<svg width="115px" height="144px" viewBox="0 0 115 144" version="1.1" xmlns="http://www.w3.org/2000/svg" xmlns:xlink="http://www.w3.org/1999/xlink">
    <!-- Generator: Sketch 51.2 (57519) - http://www.bohemiancoding.com/sketch -->
    <title>Currency_1_</title>
    <desc>Created with Sketch.</desc>
    <defs></defs>
    <g id="Page-1" stroke="none" stroke-width="1" fill="none" fill-rule="evenodd">
        <g id="Currency_1_" transform="translate(1.000000, 1.000000)">
            <path d="M33.7,86 L33.7,110.8 L42.1,110.9 C43.4,110.9 44.2,112.4 43.4,113.5 L24.3,140.3 C23.3,141.7 21.1,141.7 20.1,140.3 L1.3,113.4 C0.5,112.3 1.3,110.8 2.7,110.8 L9.3,110.8 L9.3,52.6" id="Shape" class="fill-neutral" fill-rule="nonzero"></path>
            <path d="M33.7,86 L33.7,110.8 L42.1,110.9 C43.4,110.9 44.2,112.4 43.4,113.5 L24.3,140.3 C23.3,141.7 21.1,141.7 20.1,140.3 L1.3,113.4 C0.5,112.3 1.3,110.8 2.7,110.8 L9.3,110.8 L9.3,52.6" id="Shape" class="fill-primary-500" fill-rule="nonzero"></path>
            <path d="M9.2,81.7 L9.2,73.8" id="Shape" class="stroke-primary" stroke-width="3" stroke-linecap="round" stroke-linejoin="round"></path>
            <path d="M33.7,104.9 L33.7,110.9 L42.1,111 C43.4,111 44.2,112.5 43.4,113.6 L24.3,140.4 C23.3,141.8 21.1,141.8 20.1,140.4 L1.3,113.5 C0.5,112.4 1.3,110.9 2.7,110.9 L9.3,110.9 L9.3,89.3" id="Shape" class="stroke-primary" stroke-width="3" stroke-linecap="round" stroke-linejoin="round"></path>
            <g id="Group" transform="translate(9.000000, 0.000000)">
                <circle id="Oval" class="fill-neutral" fill-rule="nonzero" cx="51.6" cy="51.2" r="51.2"></circle>
                <circle id="Oval" fill="#C4E0FF" fill-rule="nonzero" cx="53.2" cy="52.8" r="49.6"></circle>
                <g transform="translate(36.000000, 22.000000)" fill-rule="nonzero" id="Shape">
                    <path d="M14.6,56 C12.7,56 11.2,54.5 11.2,52.6 L11.2,49.7 C8.8,49.5 6.3,48.9 4.3,47.9 C2.6,47.1 1.7,45.1 2.4,43.3 C2.9,41.8 4.3,40.8 5.9,40.8 C6.4,40.8 6.9,40.9 7.4,41.1 C8.8,41.7 11,42.5 13.6,42.5 C17.1,42.5 19.5,40.7 19.5,37.9 C19.5,36.1 18.8,34.1 13.4,31.9 C7.6,29.6 2.2,26.6 2.2,19.8 C2.2,14.3 5.8,10 11.6,8.6 L11.6,5.5 C11.6,3.6 13.1,2.1 15,2.1 C16.9,2.1 18.4,3.6 18.4,5.5 L18.4,8.2 C20.3,8.4 22.1,8.8 23.6,9.5 C25.4,10.2 26.3,12.3 25.6,14.2 C25.1,15.6 23.7,16.6 22.2,16.6 C21.7,16.6 21.2,16.5 20.8,16.3 C19.2,15.6 17.4,15.3 15.6,15.3 C11.9,15.3 10.5,17.3 10.5,19.1 C10.5,21.1 11.5,22.4 17.3,24.8 C22.2,26.8 27.8,30.1 27.8,37.5 C27.8,43.2 23.9,47.8 18,49.3 L18,52.6 C18.1,54.5 16.6,56 14.6,56 Z" class="fill-neutral"></path>
                    <path d="M15.1,3.6 C16.2,3.6 17,4.5 17,5.5 L17,9.6 C19.6,9.7 21.6,10.2 23.2,10.8 C24.3,11.2 24.8,12.5 24.4,13.6 C24.1,14.5 23.2,15 22.4,15 C22.1,15 21.8,14.9 21.6,14.8 C20.2,14.2 18.3,13.7 15.8,13.7 C11,13.7 9.2,16.6 9.2,19 C9.2,22.2 11.5,23.8 16.9,26.1 C23.3,28.7 26.5,31.9 26.5,37.4 C26.5,42.3 23.1,46.9 16.7,47.9 L16.7,52.4 C16.7,53.5 15.8,54.3 14.8,54.3 L14.7,54.3 C13.6,54.3 12.8,53.4 12.8,52.4 L12.8,48.1 C10,48.1 7.2,47.4 5.1,46.4 C4.1,45.9 3.6,44.7 4,43.7 C4.3,42.8 5.2,42.3 6,42.3 C6.3,42.3 6.6,42.4 6.9,42.5 C8.9,43.4 11.2,44 13.7,44 C18.1,44 21.1,41.5 21.1,37.9 C21.1,34.5 18.7,32.4 14.1,30.5 C7.8,28 3.9,25.2 3.9,19.8 C3.9,14.7 7.6,10.8 13.3,9.8 L13.3,5.5 C13.1,4.5 14,3.6 15.1,3.6 Z M15.1,0.6 C12.4,0.6 10.2,2.8 10.2,5.5 L10.2,7.5 C4.5,9.4 0.8,14.1 0.8,19.8 C0.8,27.5 6.9,31 12.9,33.3 C17.6,35.2 18,36.7 18,37.9 C18,40.2 15.6,41 13.6,41 C11.2,41 9.2,40.3 8,39.8 C7.3,39.5 6.6,39.3 5.8,39.3 C3.6,39.3 1.7,40.7 0.9,42.7 C-4.5519144e-13,45.3 1.1,48 3.6,49.2 C5.4,50 7.5,50.6 9.6,51 L9.6,52.6 C9.6,55.3 11.8,57.5 14.5,57.5 L14.6,57.5 C17.3,57.5 19.5,55.3 19.5,52.6 L19.5,50.4 C25.4,48.5 29.3,43.6 29.3,37.5 C29.3,29.1 23.2,25.6 17.8,23.4 C12.4,21.2 12,20.2 12,19.1 C12,17.6 13.3,16.8 15.6,16.8 C17.3,16.8 18.8,17.1 20.2,17.7 C20.8,18 21.5,18.1 22.2,18.1 C24.4,18.1 26.3,16.8 27,14.8 C28,12.2 26.7,9.2 24.2,8.2 C22.9,7.7 21.4,7.3 19.9,7 L19.9,5.6 C20,2.8 17.8,0.6 15.1,0.6 Z" class="fill-primary"></path>
                </g>
                <path d="M13.6,55.5 C13.5,54.1 13.4,52.8 13.4,51.4 C13.4,30.5 30.4,13.5 51.3,13.5 C58.5,13.5 65.2,15.5 70.9,19" id="Shape" class="stroke-primary" stroke-width="3" stroke-linecap="round" stroke-linejoin="round"></path>
                <path d="M89.2,52.8 C88.4,73 71.8,89.2 51.3,89.2 C41.1,89.2 31.9,85.2 25.1,78.7" id="Shape" class="stroke-primary" stroke-width="3" stroke-linecap="round" stroke-linejoin="round"></path>
                <path d="M59.4,0.5 C84,4.3 102.8,25.5 102.8,51.1 C102.8,79.4 79.9,102.3 51.6,102.3 C23.3,102.3 0.4,79.4 0.4,51.1 C0.4,33.3 9.5,17.6 23.3,8.4" id="Shape" class="stroke-primary" stroke-width="3" stroke-linecap="round" stroke-linejoin="round"></path>
                <path d="M33.5,3.2 C35.2,2.6 36.9,2 38.6,1.6" id="Shape" class="stroke-primary" stroke-width="3" stroke-linecap="round" stroke-linejoin="round"></path>
            </g>
        </g>
    </g>
</svg>
